X: 27306
T: Missing, The
R: reel
M: 4/4
K: Dmajor
fA (3AAA ABde|f2 fe dBBc|dA (3AAA ABde|fgfe dcde|
fA (3AAA ABde|f2 fe dBBA|FAAF AB de|fgfe d3 e|
faaf a2 d'b|a2 fd edBd|faaf a2 d'b|a2 fa b3 a|
faaf a2 d'b|a2 fd edBc|dAAF ABde|fgfe d4|

